X:1
T:Title
%%score { ( 1 3 ) | ( 2 4 ) }
L:1/8
M:6/4
K:Bb
V:1 treble nm="Grand Piano"
V:3 treble 
V:2 bass 
V:4 bass 
V:1
 z6 z4[Q:1/4=108] [DF]2 | [DF]3 [_D=E] [=DF]2 G2 B2 G2 |[M:13/8] [DF]2 [FB]2 c2 d2 B3 B2 | %3
[M:6/4] [GB]3 [^FA] [GB]2 c2 B2 G2 | [B,DF]6- [B,DF]4 [B,DF]2 | F3 E E2 A2 G2 F2 | %6
[M:13/8] F3 [DG] [DF]2 [B,DB]2 [CDA]3 [B,DG]2 | [A,CF]2 [Fc]2 [CFA]2 [B,=EG]2 [DEB]3 [CEA]2 | %8
[M:5/4] F4- [DF-]2 [EF]4 |[M:1/4] F2 |[M:6/4] .[DF]4 [DF][DF] .G4 GG | %11
 F2 F2 F2 [CEF]2 [B,DF]2 [CD^F]2 | G2- [DG-]2 [DG-]2 [_DG]2 A2 B2 |[M:7/4] B2 c2 B2 A6 GF | %14
[M:6/4] [DF]3 [_D=E] [=DF]2 G2 B2 G2 |[M:13/8] [DF]2 [FB]2 c2 d2 B3 B2 | [GB]3 [FA] G2 F2 B3 c2 | %17
[M:5/4] B4- [EB-]2 [DB]4 |] %18
V:2
 z6 z4 [B,,B,]2 | [B,,B,]3 [B,,B,] [B,,B,]2 [E,B,E]2 [E,G,E]2 [E,B,E]2 | %2
[M:13/8] [B,,B,]2 [D,B,]2[K:treble] [F,A,F]2 [B,F]2 [B,D]3 [B,D_A]2 | %3
[M:6/4][K:bass] [E,E]3 [E,C] [E,B,]2 [E,G,E]2 [E,G,E]2 [E,B,E]2 | B,,6- B,,4 B,,D, | %5
 [F,A,D]3 [F,A,C] [F,A,C]2 [F,CE]2 [G,CE]2 [A,CE]2 | %6
[M:13/8] [B,D]3 [B,,B,] [B,,B,]2 G,,2 A,,3 B,,2 | C,2 [C,A,]2 C,2 C,2 C,3 C,2 | %8
[M:5/4] z2 C2 B,2 C4 |[M:1/4] [F,A,E]2 |[M:6/4] .[B,,B,]4 [B,,B,][B,,B,] .[E,B,E]4 [E,B,E][E,B,E] | %11
 [F,A,C]2 [F,B,D]2 [F,CE]2 B,,2 B,,2 A,,2 | G,,2 [G,B,]2 [F,B,]2 [=E,B,]2 [E,A,_D]2 [E,G,D]2 | %13
[M:7/4] D2 E2 D2 C6 [F,A,E]2 |[M:6/4] [B,,B,]3 [B,,B,] [B,,B,]2 [E,B,E]2 [E,G,E]2 [E,B,E]2 | %15
[M:13/8] [B,,B,]2 [D,B,]2[K:treble] [F,A,F]2 [B,F]2 [B,D]3 [B,D_A]2 | %16
 [E,E]3 [E,B,] [E,B,E]2 [F,B,D]2 [G,B,D]3 [F,A,E]2 |[M:5/4] F,4 z2 z4 |] %18
V:3
 x12 | x12 |[M:13/8] x13 |[M:6/4] x12 | x12 | x12 |[M:13/8] x13 | x13 |[M:5/4] A,4 z2 z4 | %9
[M:1/4] x2 |[M:6/4] x12 | x12 | .[B,D]6 z6 |[M:7/4] x14 |[M:6/4] x12 |[M:13/8] x13 | x13 | %17
[M:5/4] D4 z2 z4 |] %18
V:4
 x12 | x12 |[M:13/8] x4[K:treble] x9 |[M:6/4][K:bass] x12 | x12 | x12 |[M:13/8] x13 | x13 | %8
[M:5/4] F,2- F,2- F,6 |[M:1/4] x2 |[M:6/4] x12 | x12 | x12 |[M:7/4] F,2- F,2- F,2- F,6 z2 | %14
[M:6/4] x12 |[M:13/8] x4[K:treble] x9 | x13 |[M:5/4] B,,4- [B,,-G,]2 [B,,F,]4 |] %18

